X:1
T:Jesus Is Risen!
T:Jesus Is Risen!
T:George Crawford Hugg
T:Ida Lilliard Reed, ca. 1903
T:Public Domain Courtesy of the Cyber Hymnal™
T:Public Domain Courtesy of the Cyber Hymnal™
C:George Crawford Hugg
Z:Public Domain
Z:Courtesy of the Cyber Hymnal™
%%score ( 1 2 ) ( 3 4 )
L:1/8
Q:1/4=107
M:9/8
K:Eb
V:1 treble 
V:2 treble 
V:3 bass 
V:4 bass 
V:1
 EGB | [Ge]3 [GB]3 [EG][GB][Ge] | [Ae]3 [Ad]3 [DF][EG][FA] | [Ac]3 [GB]2 [GB] ([FA][EG])[DF] | %4
w: 1.~Je- sus is|ris- en! peal out the|sto- ry, Chime all ye|bells, let the tid- * ings|
w: 2.~Je- sus is|ris- en! once more He|liv- eth, Hail to our|Sav- ior, Re- deemer * and|
w: 3.~Je- sus is|ris- en! chime out tri-|umph- ant, Glad bells of|Eas- ter the glori- * ous|
 ([FA]3 [EG]3) EGB | [Ge]3 [GB]3 [EG][GB][Ge] | [Af]3 [Ac]3 [^Fe][Fd][Fc] | %7
w: ring; * Sing ye glad|voic- es, hail Him the|Vic- tor, Death He hath|
w: Lord; * Our In- ter-|cess- or, ev- er and|ev- er, O’er us He|
w: strain, * Out of death’s|dark- ness in- to God’s|glo- ry, Je- sus is|
 [GB]3 [Ge]2 [EG] [GB][FA][DF] | E6 ||"^Refrain" GFE | [B,D]3 [Dc]3 [Dc][DB][DA] | A3 [EG]3 Bcd | %12
w: van- quished, all hail to the|King.||||
w: keep- eth love’s wa- tch and|ward.|Je- sus is|ris- en! peal out the|sto- ry, Send the glad|
w: ris- en, al- might- y to|reign.||||
 [Ge]3 [GB]2 [EG] [Ec]2 [EF] | [DF]6 [EG][EF]E | [EB]3 [EG]2 [GB] [Ge][Ad][Be] | %15
w: |||
w: news o- ver land and|sea; Je- sus is|ris- en, tri- umph- ant, al-|
w: |||
 [Af]3 [Ac]3 [^Fe][Fd][Fc] | [GB]3 [Ge]2 [EG] [GB][FA][DF] | E6 |] %18
w: |||
w: might- y, Join in the|song of the great ju- bi-|lee.|
w: |||
V:2
 EGB | x9 | x9 | x9 | x6 EGB | x9 | x9 | x9 | E6 || GFE | x9 | (DEF) x2 B cd x | x9 | x8 E | x9 | %15
 x9 | x9 | E6 |] %18
V:3
 E,G,B, | [E,E]3 [E,E]3 [E,B,][E,E][E,E] | [F,B,]3 B,3 [B,,B,][B,,B,][B,,B,] | %3
 [B,,B,]3 [B,,B,]2 [B,,B,] ([B,,B,][B,,B,])[B,,B,] | B,6 E,G,B, | [E,E]3 [E,E]3 [E,B,][E,E][E,E] | %6
 [A,C]3 [A,E]3 [=A,E][A,E][A,E] | [B,E]3 B,2 [B,,B,] [B,,B,][B,,B,][B,,A,] | [E,G,]6 || G,F,E, | %10
 [B,,A,]3 [B,,A,]3 [B,,A,][B,,G,][B,,F,] | B,3 [E,B,]3 B,CD | %12
 [E,E]3 [E,E]2 [E,B,] [C,=A,]2 [C,A,] | [B,,B,]6 [E,B,][E,A,][E,G,] | %14
 [E,G,]3 [E,B,]2 [E,B,] [E,B,][F,B,][G,B,] | [A,C]3 [A,E]3 [=A,E][A,E][A,E] | %16
 [B,E]3 B,2 [B,,B,] [B,,B,][B,,B,][B,,A,] | [E,G,]6 |] %18
V:4
 E,G,B, | x9 | x3 B,3 x3 | x9 | (B,,C,D, E,3) E,G,B, | x9 | x9 | x3 B,2 x4 | x6 || G,F,E, | x9 | %11
 (B,,C,D,) x2 B, CD x | x9 | x9 | x9 | x9 | x3 B,2 x4 | x6 |] %18

